X: 267
%
U:~=!turn!
T: Johnny McGill
C:
O:Scotland
B:Keith Norman MacDonald : "The Skye collection of the best reels & strathspeys extant" : 1887
Z:Ralph Palmer
R:Jig
M:6/8
L:1/8
K:E aeolian
g | dBB BAG | dBB (B2 g) | dBB BAB | GEE (E2 g) | dBB BAG | dBB B2 A/G/ | ABc BAB | GEE E2 ::
d | gfg aga | bge dBG | gfg aga | bge e2 g/a/ | bgb afa | gef g2 f/e/ | dBB BAB | GEE E2 :|


